!!!OTL: 299. Die ersten Hosen.
!!!ARE: Europa, Mitteleuropa, Deutschland, Boehmen
!!!SCT: K0299
!!!TXL: @@DE
!!!YEM: Copyright 1995, estate of Helmut Schaffrath.
**kern	**text
*clefG2	*
*M2/4	*
*k[b-e-]	*
*B-:	*
=1	=1
{8.g	Un-
16d	-ſer
8g	Hans
8a	hat
=2	=2
8.b-	Ho-
16a	-ſen
8g}	an,
{8dd	und
=3	=3
8.dd	die
16d	ſind
8.d	ihm
16d	ʒu
=4	=4
4g	klein.
4r}	.
=5	=5
{4dd	Horcht,
8.dd	wie
16dd	der
=6	=6
4cc	Wind
4cc}	geht,
=7	=7
{4b-	horcht,
8.b-	wie
16b-	der
=8	=8
4a	Hahn
4a;}	kräht!
=9	=9
{8.b-	Drau-
16f	-ßen
8b-	auf
8cc	der
=10	=10
8dd	Hol-
8ff	-lerſtand'n
4b-}	.
=11	=11
{8cc	ſitʒt
8ee-	ein
8a	ſchö-
8a	-ner
=12	=12
8b-	Fink
8gg	Fink
4ff}	Fink,
=13	=13
{8.b-	drau-
16f	-ßen
8b-	auf
8cc	der
=14	=14
8dd	Hol-
8ff	-lerſtaud'n
4b-}	.
=15	=15
{8.cc	ſitʒt
16ee-	ein
8a	ſchö-
8a	-ner
=16	=16
4b-	Fink.
4r}	.
==	==
!!!AGN: Kinder -, Kose -, Scherz - Lied
!!!ONB: ESAC (Essen Associative Code) Database: KINDER
!!!AMT: simple duple
!!!AIN: vox
!!!EED: Helmut Schaffrath
!!!EEV: 1.0
!!!GTL: II. Koselieder und Schmerzreime der Muetter Ammen.
!!Aus Boehmen.
!!@@COMMENT:"Die hübſche Mel. iſt vermuthlich altböhmiſche Tanʒweiſe."
!!@@END:
!!!URL-scan: https://archive.org/details/DeutschesKinderliedUndKinderspiel/page/68/mode/1up
!!!ENC: Anna Maria Matuszewska
!!!EEV: 2024/30/08
*-	*-
